images/logo.svg

<svg width="146" height="36" viewBox="0 0 146 36" fill="none" xmlns="http://www.w3.org/2000/svg">
<path fill-rule="evenodd" clip-rule="evenodd" d="M31.5865 31.1296H13.8389V22.1944H22.7054V13.328H31.5865V31.1296ZM13.8389 17.7607H18.2716V13.328H13.8389V17.7607ZM4.99167 17.7607V4.43269H18.2719V8.89477H9.40599V17.7607H4.99167ZM22.7058 8.89477V0H0.558594V22.1944H9.40613V35.5628H36.0201V8.89477H22.7058Z" fill="#2B2B2B"/>
<path fill-rule="evenodd" clip-rule="evenodd" d="M53.7692 16.9953H58.7278V13.0654H53.7692V16.9953ZM53.7699 21.0774V26.6196H49.4868V8.98438H63.0116V21.0774H53.7699Z" fill="#2B2B2B"/>
<path fill-rule="evenodd" clip-rule="evenodd" d="M73.7703 13.0654H70.6717V16.7439H73.7703C75.2566 16.7439 75.9625 16.1393 75.9625 14.9296C75.9625 13.6952 75.2067 13.0654 73.7703 13.0654ZM72.0084 20.4975H70.6733V26.6196H66.3901V8.98438H74.2505C77.9794 8.98438 80.297 11.2007 80.297 14.8792C80.297 17.7012 78.9367 19.3891 76.7702 20.095L81.4054 26.6196H76.1656L72.0084 20.4975Z" fill="#2B2B2B"/>
<path fill-rule="evenodd" clip-rule="evenodd" d="M91.5971 20.9762V26.6196H87.3145V21.0265L81.1924 8.98438H86.004L89.4558 16.164L92.907 8.98438H97.694L91.5971 20.9762Z" fill="#2B2B2B"/>
<path fill-rule="evenodd" clip-rule="evenodd" d="M112.952 13.0654H108.14V26.6196H103.857V13.0654H99.0698V8.98438H112.952V13.0654Z" fill="#2B2B2B"/>
<path fill-rule="evenodd" clip-rule="evenodd" d="M119.146 13.0654V15.6854H126.301V19.7669H119.146V22.5386H127.007V26.6196H114.863V8.98438H127.007V13.0654H119.146Z" fill="#2B2B2B"/>
<path fill-rule="evenodd" clip-rule="evenodd" d="M140.218 26.6196L134.322 18.6333V26.6196H130.039V8.98438H134.322V16.4915L139.839 8.98438H145.105L138.756 17.4992L145.559 26.6196H140.218Z" fill="#2B2B2B"/>
</svg>

<svg width="146" height="36" fill="none" xmlns="http://www.w3.org/2000/svg"><path fill-rule="evenodd" clip-rule="evenodd" d="M31.587 31.13H13.838v-8.936h8.866v-8.866h8.882V31.13zM13.838 17.76h4.433v-4.432h-4.433v4.433zm-8.847 0V4.434h13.28v4.462H9.406v8.866H4.992zm17.714-8.865V0H.559v22.194h8.847v13.369H36.02V8.895H22.706zM53.77 16.995h4.958v-3.93h-4.959v3.93zm0 4.082v5.543h-4.283V8.984h13.525v12.093H53.77zM73.77 13.065h-3.098v3.679h3.098c1.487 0 2.193-.605 2.193-1.814 0-1.235-.756-1.865-2.193-1.865zm-1.762 7.432h-1.335v6.123H66.39V8.984h7.86c3.73 0 6.047 2.217 6.047 5.895 0 2.822-1.36 4.51-3.527 5.216l4.635 6.525h-5.24l-4.157-6.123zM91.597 20.976v5.644h-4.282v-5.594L81.191 8.984h4.812l3.452 7.18 3.451-7.18h4.787l-6.097 11.992zM112.952 13.065h-4.812V26.62h-4.283V13.065H99.07v-4.08h13.882v4.08zM119.146 13.065v2.62h7.155v4.082h-7.155v2.772h7.861v4.08h-12.144V8.985h12.144v4.081h-7.861zM140.218 26.62l-5.896-7.987v7.987h-4.283V8.984h4.283v7.507l5.517-7.507h5.266l-6.349 8.515 6.803 9.12h-5.341z" fill="#2B2B2B"/></svg>
